!!!COM:	Bach, Johann Sebastian
!!!CDT:	1685/02/21/-1750/07/28/
!!!OTL@@DE:	Christ lag in Todesbanden
!!!SCT:	BWV 278
!!!PC#:	371
!!!AGN:	chorale
**kern	**kern	**kern	**kern
*ICvox	*ICvox	*ICvox	*ICvox
*Ibass	*Itenor	*Ialto	*Isoprn
*I"Bass	*I"Tenor	*I"Alto	*I"Soprano
*>[A,A,B]	*>[A,A,B]	*>[A,A,B]	*>[A,A,B]
*>norep[A,B]	*>norep[A,B]	*>norep[A,B]	*>norep[A,B]
*>A	*>A	*>A	*>A
*	*oclefC4	*oclefC3	*oclefC1
*clefF4	*clefGv2	*clefG2	*clefG2
*k[f#]	*k[f#]	*k[f#]	*k[f#]
*e:	*e:	*e:	*e:
*M4/4	*M4/4	*M4/4	*M4/4
*met(c)	*met(c)	*met(c)	*met(c)
*MM100	*MM100	*MM100	*MM100
4E	8eL	4g	4b
.	8dJ	.	.
=1	=1	=1	=1
4E	4c#	4.f#	4a#
8DL	8dL	.	8bL
8C#XJ	8eJ	8a#	8cc#J
8BB	8f#	8bL	4dd
4B	4g	16a#L	.
.	.	16bJJ	.
.	.	4cc#	4ee
8A#	8f#	.	.
=2	=2	=2	=2
8BL	8f#L	8cc#	4dd
8G	8B	4b	.
8E	16c#L	.	4cc#
.	16dJ	.	.
8F#J	8eJ	8a#	.
4BB;	8eL	4f#;	4b;
.	8d#;J	.	.
4D#X	4B	4f#	8bL
.	.	.	8aJ
=3	=3	=3	=3
4E	8B	8f#	4g
.	4cnX	4e	.
4F#	.	.	4a
.	16BLL	16d#LL	.
.	16AJJ	16c#JJ	.
8GL	8eL	8BL	8bL
8F#	8f#J	8d#J	8aJ
8G	4B	4e	4g
8AJ	.	.	.
=4	=4	=4	=4
4B	4.B	8eL	8f#L
.	.	16d#L	8eJ
.	.	16c#JJ	.
4BB	.	4d#	4f#
.	8A	.	.
4E;	4G;	4B;	4e;
=:|!	=:|!	=:|!	=:|!
*>B	*>B	*>B	*>B
4r	4ry	4ry	4r
=5	=5	=5	=5
4.E	8GL	4B	8eL
.	8AJ	.	8f#J
.	4B	4e	4g
8DnX	.	.	.
8CnXL	4E	4.e	4a
8BBJ	.	.	.
8C#L	4A	.	8eL
8D#J	.	8B	8f#J
=6	=6	=6	=6
8EL	8GL	8BL	4g
8DJ	16AL	16cL	.
.	16BJJ	16dJJ	.
4C	4c	4e	4a
4BB;	4F#;	4d#;	4b;
8BL	4d#	4f#	4b
8AJ	.	.	.
=7	=7	=7	=7
8GL	8eL	4b	4ee
16F#L	16f#L	.	.
16EJJ	16gJJ	.	.
8F#L	8aL	4a	4ddnX
8AJ	8f#J	.	.
8G#L	8BL	8bL	4ee
8c#J	8eJ	8g#J	.
8A#L	8c#L	4cc#	8ff#L
8F#J	16BL	.	8eeJ
.	16A#JJ	.	.
=8	=8	=8	=8
8BL	8BL	8cc#	4dd
8GnXJ	8dJ	4b	.
8EL	8gL	.	4cc#
8F#J	8f#J	8a#	.
4BB;	4d;	4f#;	4b;
4E	4e	4gnX	4cc#
=9	=9	=9	=9
4D	4AnX	4f#	8ddL
.	.	.	8ccnXJ
8GGL	8BL	4d	8bL
8AAJ	8AJ	.	8ccJ
8BBL	4.G	2d	4dd
8CJ	.	.	.
[4D	.	.	4a
.	8F#	.	.
=10	=10	=10	=10
8DL]	4B	4.e	4g
8C#J	.	.	.
8DL	4A	.	4f#
8F#J	.	8d	.
2A;	2A;	2c#;	2e;
=11	=11	=11	=11
8A	4B	8d#L	4b
4G	.	8eJ	.
.	8c#L	8eL	4a
8F#	8d#J	8f#J	.
8EL	8eL	8B	4g
8CJ	8GJ	4e	.
8AAL	8cnXL	.	4f#
8BBJ	16BL	8d#	.
.	16AJJ	.	.
=12	=12	=12	=12
2.E;	2.G#;	2.B;	2.e;
==	==	==	==
*-	*-	*-	*-
!!!YOR1: 371 vierstimmige Choralges&auml;nge von Johann Sebastian Bach, 
!!!YOR2: 4th ed. by Alfred D&ouml;rffel (Leipzig: Breitkopf und H&auml;rtel, 
!!!YOR2: c.1875). 178 pp. Plate "V.A.10".  reprint: J.S. Bach, 371 Four-Part 
!!!YOR4: Chorales (New York: Associated Music Publishers, Inc., c.1940).
!!!SMS: B&H, 4th ed, Alfred D&ouml;rffel, c.1875, plate V.A.10
!!!EED:  Craig Stuart Sapp
!!!EEV:  2009/05/22
